X:6973
T:The Kid on the Mountain
O:england
C:Trad
R:Slip Jig
M:9/8
K:Em
L:1/8
EDE FEF G2F| EDE BcB BGE|EDE FEF G2A|BAG FAG FED:|
|:BGB AFA G2D|GAB dge dBA|BGB AFA G2A|BAG FAG FED:|
|:gfg eBe e2f|gfg efg afd|gfg eBe e2 g/a/|bag fag fed:|
|:eBB e2f g2f|eBB efg afd|eBB e2f g2a|bag fag fed:|
|:eBe dBA G2D|GAB dge dBd|eBe dBA G2A|BAG FAG FED:|


